X:445
T:Gan Ainm
R:Reel
S:Jim Mulqueeny, Clare (fiddle).
D:A mysterious tape
H:'c's and 'f's very mobile
Q:400
M:4/4
Z:Bernie Stocks
K:D
|: AGFA d2cA | BGAF G2FG | AGFA d2cA | BGAG FDD2 :|
|: fefd cAAg | fdef gbag | fefd cAFG |1 ABAG FDD2 :|2 ABcA dedc ||
